src/icons/lock.svg

<svg fill="none" height="25" viewBox="0 0 18 25" width="18" xmlns="http://www.w3.org/2000/svg"><path d="m8.86481 0c-3.42826 0-6.20581 2.93844-6.20581 6.56528v3.58102h-.56416c-.92789 0-1.692496.8089-1.692496 1.7906v10.7432c0 .9816.764606 1.7905 1.692496 1.7905h13.53996c.9279 0 1.6925-.8089 1.6925-1.7905v-10.7432c0-.9817-.7646-1.7906-1.6925-1.7906h-.5642v-3.58102c0-3.62684-2.7775-6.56528-6.20579-6.56528zm0 1.19369c2.82269 0 5.07749 2.3854 5.07749 5.37159v3.58102h-10.15497v-3.58102c0-2.98619 2.25479-5.37159 5.07748-5.37159zm-6.76997 10.14631h13.53996c.3223 0 .5641.2559.5641.5969v10.7432c0 .3409-.2418.5968-.5641.5968h-13.53996c-.32231 0-.56417-.2559-.56417-.5968v-10.7432c0-.341.24186-.5969.56417-.5969z" fill="#9c55f6"/></svg>

<svg width="18" height="25" viewBox="0 0 18 25" fill="none" xmlns="http://www.w3.org/2000/svg">
<path d="M8.86481 0C5.43655 0 2.659 2.93844 2.659 6.56528V10.1463H2.09484C1.16695 10.1463 0.402344 10.9552 0.402344 11.9369V22.6801C0.402344 23.6617 1.16695 24.4706 2.09484 24.4706H15.6348C16.5627 24.4706 17.3273 23.6617 17.3273 22.6801V11.9369C17.3273 10.9552 16.5627 10.1463 15.6348 10.1463H15.0706V6.56528C15.0706 2.93844 12.2931 0 8.86481 0ZM8.86481 1.19369C11.6875 1.19369 13.9423 3.57909 13.9423 6.56528V10.1463H3.78733V6.56528C3.78733 3.57909 6.04212 1.19369 8.86481 1.19369ZM2.09484 11.34H15.6348C15.9571 11.34 16.1989 11.5959 16.1989 11.9369V22.6801C16.1989 23.021 15.9571 23.2769 15.6348 23.2769H2.09484C1.77253 23.2769 1.53067 23.021 1.53067 22.6801V11.9369C1.53067 11.5959 1.77253 11.34 2.09484 11.34Z" fill="#9C55F6"/>
</svg>
